build/assets/icons/uzum-bank.svg

<svg width="108" height="44" viewBox="0 0 108 44" fill="none" xmlns="http://www.w3.org/2000/svg">
<g clip-path="url(#clip0_436_3823)">
<path fill-rule="evenodd" clip-rule="evenodd" d="M21.3584 42.6538C32.9351 42.6538 42.3169 33.3042 42.3169 21.7673C42.3169 10.2104 32.9351 0.86084 21.3584 0.858398C9.78918 0.858398 0.397461 10.2104 0.397461 21.7673C0.397461 33.3018 9.79175 42.6538 21.3584 42.6538ZM21.356 8.01819C22.1719 8.01819 22.9779 8.05042 23.7616 8.12231V19.2723H18.9602V8.12231C19.7439 8.05042 20.5499 8.01819 21.356 8.01819ZM29.5052 13.2733C31.3776 13.6056 33.1656 14.0669 34.8595 14.6199H34.8621V22.6874C34.8621 30.0951 28.8158 36.1464 21.3584 36.1464C13.9135 36.1464 7.86719 30.0951 7.86719 22.6874V14.6199C9.56104 14.0669 11.3491 13.608 13.2216 13.2733V22.6353C13.2216 29.376 16.0984 32.9174 21.3584 32.9174C26.6383 32.9174 29.5052 29.376 29.5052 22.6353V13.2733ZM98.5344 11.3789C99.2362 10.2257 100.642 9.46191 102.52 9.46191C105.687 9.46191 107.217 11.4731 107.224 13.9581V19.9275H104.266V14.3748C104.266 13.1893 103.594 12.1428 102.168 12.1428C100.742 12.1428 100.04 13.1497 100.04 14.3326V19.9275H97.0811V14.3326C97.0811 13.1497 96.3346 12.1428 94.8987 12.1428C93.4727 12.1428 92.8428 13.1919 92.8428 14.3748V19.9275H89.8842V13.9557C89.8842 11.4731 91.5085 9.46191 94.6656 9.46191C96.28 9.46191 97.8202 10.2257 98.5344 11.3789ZM74.6644 12.1552V9.66028H65.0668V12.1552H70.751L64.8362 17.4351V19.9301H75.0215V17.4351H68.7595L74.6644 12.1552ZM84.6687 15.037C84.6687 16.6713 83.7461 17.4252 82.3822 17.4252C81.0082 17.4252 80.1179 16.6713 80.1179 15.037V9.66028H77.1593V15.1411C77.1593 18.7148 80.1377 20.1185 82.3921 20.1185C84.6166 20.1185 87.6249 18.7148 87.6249 15.1411V9.66028H84.6663V15.037H84.6687ZM59.9381 15.037C59.9381 16.6713 59.0156 17.4252 57.6516 17.4252C56.2777 17.4252 55.3873 16.6713 55.3873 15.037V9.66028H52.4287V15.1411C52.4287 18.7148 55.4072 20.1185 57.6615 20.1185C59.8861 20.1185 62.8943 18.7148 62.8943 15.1411V9.66028H59.9357V15.037H59.9381ZM57.4309 35.4623C57.8848 35.6508 58.4452 35.745 59.1099 35.745C59.7744 35.745 60.4069 35.6284 61.0071 35.4052C61.6047 35.177 62.1281 34.8447 62.5743 34.4132C63.0233 33.9817 63.3779 33.4485 63.6433 32.8136C63.9087 32.1787 64.04 31.4546 64.04 30.6436C64.04 29.8326 63.9087 29.1085 63.6433 28.4736C63.3779 27.8387 63.0233 27.3055 62.5743 26.874C62.1281 26.4425 61.6047 26.1101 61.0071 25.882C60.4093 25.6514 59.777 25.5372 59.1123 25.5372C58.4601 25.5372 57.9095 25.6117 57.4631 25.7605C57.0143 25.9093 56.6422 26.0779 56.3422 26.2689C55.99 26.4846 55.7048 26.7227 55.4866 26.9806H55.365V21.4899H52.4337V35.7275H55.365V33.9543H55.5063C55.7097 34.2916 55.9825 34.5892 56.3223 34.8497C56.605 35.0704 56.9771 35.2738 57.4309 35.4623ZM60.2804 32.4292C59.7844 32.9028 59.09 33.141 58.1923 33.141C57.297 33.141 56.6025 32.9028 56.1066 32.4292C55.6106 31.9556 55.3625 31.3578 55.3625 30.6387C55.3625 29.8922 55.6205 29.2896 56.1364 28.8282C56.6521 28.3669 57.3367 28.1364 58.1923 28.1364C59.0875 28.1364 59.7844 28.3744 60.2804 28.848C60.7764 29.3218 61.0244 29.9194 61.0244 30.6387C61.0244 31.3578 60.7764 31.9556 60.2804 32.4292ZM80.1799 25.5547H83.1138V27.3799H83.2775C83.4535 27.0352 83.704 26.7301 84.0314 26.4673C84.3042 26.2416 84.6737 26.0308 85.1423 25.8324C85.6111 25.634 86.2113 25.5348 86.9453 25.5348C87.543 25.5348 88.1035 25.6191 88.6243 25.7853C89.1451 25.9514 89.6014 26.2144 89.9883 26.574C90.3752 26.9335 90.6777 27.3873 90.896 27.933C91.1117 28.4785 91.2208 29.1307 91.2208 29.8896V35.7251H88.287V30.718C88.287 29.8451 88.049 29.1953 87.5753 28.7712C87.0991 28.3472 86.4741 28.1364 85.7004 28.1364C84.8448 28.1364 84.2 28.3794 83.766 28.8605C83.332 29.3441 83.1138 29.9641 83.1138 30.718V35.7227H80.1799V25.5547ZM96.5975 21.4874H93.6637V35.7251H96.5975V30.7428L101.161 35.7251H104.623L99.8984 30.4973L104.256 25.5547H100.813L96.5975 30.3137V21.4874ZM77.3156 32.1886V25.2942H74.2825L74.3048 26.9707C73.6451 25.9862 72.4845 25.0884 70.426 25.0884C66.8846 25.0884 65.0643 27.8387 65.0643 30.5964C64.9999 33.3889 67.0582 36.1691 70.2748 36.1691C71.9761 36.1691 73.536 35.4126 74.2825 34.0809C74.5851 34.9587 75.3439 35.921 76.9261 35.921H78.682V33.3444H78.1935C77.5759 33.3444 77.3156 33.1187 77.3156 32.1886ZM71.0659 33.5079C69.3225 33.5079 68.0229 32.3076 68.0229 30.6188C68.0229 28.9523 69.3225 27.7717 71.0659 27.7717C72.8639 27.7717 74.1635 28.9523 74.1635 30.6188C74.1635 32.3052 72.8639 33.5079 71.0659 33.5079Z" fill="#7000FF"/>
</g>
<defs>
<clipPath id="clip0_436_3823">
<rect width="108" height="43" fill="white" transform="translate(0 0.5)"/>
</clipPath>
</defs>
</svg>

<svg width="108" height="44" fill="none" xmlns="http://www.w3.org/2000/svg"><g clip-path="url(#clip0_436_3823)"><path fill-rule="evenodd" clip-rule="evenodd" d="M21.358 42.654c11.577 0 20.959-9.35 20.959-20.887C42.317 10.21 32.935.861 21.358.858 9.79.858.398 10.21.398 21.768c0 11.534 9.394 20.886 20.96 20.886zm-.002-34.636c.816 0 1.622.032 2.406.104v11.15H18.96V8.122c.784-.072 1.59-.104 2.396-.104zm8.15 5.255c1.872.333 3.66.794 5.353 1.347h.003v8.067c0 7.408-6.046 13.46-13.504 13.46-7.444 0-13.49-6.052-13.49-13.46V14.62a39.84 39.84 0 015.354-1.347v9.362c0 6.741 2.876 10.282 8.136 10.282 5.28 0 8.147-3.541 8.147-10.282v-9.362zm69.028-1.894c.702-1.153 2.108-1.917 3.986-1.917 3.167 0 4.697 2.011 4.704 4.496v5.97h-2.958v-5.553c0-1.186-.672-2.232-2.098-2.232-1.426 0-2.128 1.007-2.128 2.19v5.594h-2.959v-5.594c0-1.183-.746-2.19-2.182-2.19-1.426 0-2.056 1.049-2.056 2.232v5.552h-2.959v-5.971c0-2.483 1.624-4.494 4.782-4.494 1.614 0 3.154.764 3.868 1.917zm-23.87.776V9.66h-9.597v2.495h5.684l-5.915 5.28v2.495h10.186v-2.495h-6.263l5.905-5.28zm10.005 2.882c0 1.634-.923 2.388-2.287 2.388-1.374 0-2.264-.754-2.264-2.388V9.66h-2.959v5.481c0 3.574 2.979 4.978 5.233 4.978 2.225 0 5.233-1.404 5.233-4.978v-5.48h-2.959v5.376h.003zm-24.73 0c0 1.634-.923 2.388-2.287 2.388-1.374 0-2.265-.754-2.265-2.388V9.66H52.43v5.481c0 3.574 2.978 4.978 5.232 4.978 2.225 0 5.233-1.404 5.233-4.978v-5.48h-2.958v5.376h.002zM57.43 35.462c.454.189 1.014.283 1.679.283.664 0 1.297-.117 1.897-.34a4.584 4.584 0 001.567-.992 4.691 4.691 0 001.07-1.6c.265-.634.396-1.358.396-2.17 0-.81-.131-1.535-.397-2.17a4.691 4.691 0 00-1.069-1.599 4.583 4.583 0 00-1.567-.992 5.22 5.22 0 00-1.895-.345c-.652 0-1.203.075-1.649.224a5 5 0 00-1.12.508 3.508 3.508 0 00-.856.712h-.122V21.49h-2.931v14.238h2.931v-1.774h.141c.204.338.477.635.816.896.283.22.655.424 1.109.612zm2.85-3.033c-.497.474-1.191.712-2.089.712-.895 0-1.59-.238-2.085-.712-.496-.473-.745-1.071-.745-1.79 0-.747.258-1.35.774-1.81.516-.462 1.2-.693 2.056-.693.895 0 1.592.238 2.088.712s.744 1.071.744 1.79c0 .72-.248 1.318-.744 1.791zm19.899-6.874h2.934v1.825h.163c.177-.345.427-.65.754-.913.273-.225.643-.436 1.111-.635.47-.198 1.07-.297 1.803-.297.598 0 1.159.084 1.68.25.52.166.976.43 1.363.789.387.36.69.813.908 1.359.216.546.325 1.198.325 1.957v5.835h-2.934v-5.007c0-.873-.238-1.523-.712-1.947-.476-.424-1.1-.635-1.875-.635-.855 0-1.5.243-1.934.724-.434.484-.652 1.104-.652 1.858v5.005H80.18V25.555zm16.417-4.068h-2.933v14.238h2.933v-4.982l4.564 4.982h3.462l-4.725-5.228 4.358-4.942h-3.443l-4.216 4.759v-8.827zM77.316 32.19v-6.895h-3.034l.023 1.677c-.66-.985-1.82-1.883-3.879-1.883-3.541 0-5.362 2.75-5.362 5.508-.064 2.793 1.994 5.573 5.21 5.573 1.702 0 3.262-.756 4.008-2.088.303.878 1.062 1.84 2.644 1.84h1.756v-2.577h-.489c-.617 0-.877-.225-.877-1.155zm-6.25 1.319c-1.743 0-3.043-1.2-3.043-2.89 0-1.666 1.3-2.846 3.043-2.846 1.798 0 3.097 1.18 3.097 2.847 0 1.686-1.3 2.889-3.097 2.889z" fill="#7000FF"/></g><defs><clipPath id="clip0_436_3823"><path fill="#fff" transform="translate(0 .5)" d="M0 0h108v43H0z"/></clipPath></defs></svg>
